Simply-White-Circles/scalable/apps/granatier.svg

<svg xmlns="http://www.w3.org/2000/svg" width="48" height="48" viewBox="0 0 12.7 12.7"><path d="M6.34.07a6.29 6.29 0 0 0-6.29 6.3 6.29 6.29 0 0 0 6.3 6.28 6.29 6.29 0 0 0 6.28-6.29A6.29 6.29 0 0 0 6.34.07zm-.01.94a5.4 5.4 0 0 1 5.4 5.4 5.4 5.4 0 0 1-5.4 5.41 5.4 5.4 0 0 1-5.41-5.4A5.4 5.4 0 0 1 6.32 1zm2.86 1.7h-.15v.78h.15v-.78zm-.79.24l-.1.1.55.56.1-.1-.55-.56zm1.46.15l-.55.55.1.1.56-.55-.1-.1zm-.33.76v.15h.78v-.15h-.78zm-.55.03l-.86.85-.42-.42a.2.2 0 0 0-.28 0l-.49.49A3.19 3.19 0 0 0 2.3 7.56v.1a3.19 3.19 0 1 0 6.04-1.44l.49-.49a.2.2 0 0 0 0-.28l-.48-.48.86-.86-.23-.22zm.6.25l-.1.1.55.55.1-.1-.55-.55zm-4.74.9a.65.47 0 0 1 .65.47.65.47 0 0 1-.65.46.65.47 0 0 1-.65-.46.65.47 0 0 1 .65-.47zM3.72 6.2a.61 1.16 12.98 0 1 .1 0 .61 1.16 12.98 0 1 .34 1.28.61 1.16 12.98 0 1-.86 1 .61 1.16 12.98 0 1-.33-1.28.61 1.16 12.98 0 1 .75-1z" fill="#e6e6e6"/></svg>

<?xml version="1.0" encoding="UTF-8" standalone="no"?>
<svg
   xmlns:dc="http://purl.org/dc/elements/1.1/"
   xmlns:cc="http://creativecommons.org/ns#"
   xmlns:rdf="http://www.w3.org/1999/02/22-rdf-syntax-ns#"
   xmlns:svg="http://www.w3.org/2000/svg"
   xmlns="http://www.w3.org/2000/svg"
   xmlns:sodipodi="http://sodipodi.sourceforge.net/DTD/sodipodi-0.dtd"
   xmlns:inkscape="http://www.inkscape.org/namespaces/inkscape"
   width="48"
   height="48"
   viewBox="0 0 12.7 12.7"
   version="1.1"
   id="svg4"
   sodipodi:docname="granatier.svg"
   inkscape:version="0.92.4 (5da689c313, 2019-01-14)">
  <metadata
     id="metadata10">
    <rdf:RDF>
      <cc:Work
         rdf:about="">
        <dc:format>image/svg+xml</dc:format>
        <dc:type
           rdf:resource="http://purl.org/dc/dcmitype/StillImage" />
        <dc:title></dc:title>
      </cc:Work>
    </rdf:RDF>
  </metadata>
  <defs
     id="defs8" />
  <sodipodi:namedview
     pagecolor="#ffffff"
     bordercolor="#666666"
     borderopacity="1"
     objecttolerance="10"
     gridtolerance="10"
     guidetolerance="10"
     inkscape:pageopacity="0"
     inkscape:pageshadow="2"
     inkscape:window-width="1087"
     inkscape:window-height="480"
     id="namedview6"
     showgrid="false"
     inkscape:zoom="4.9166667"
     inkscape:cx="2.1355932"
     inkscape:cy="24"
     inkscape:window-x="0"
     inkscape:window-y="25"
     inkscape:window-maximized="0"
     inkscape:current-layer="svg4" />
  <path
     d="M 6.34,0.07 A 6.29,6.29 0 0 0 0.05,6.37 6.29,6.29 0 0 0 6.35,12.65 6.29,6.29 0 0 0 12.63,6.36 6.29,6.29 0 0 0 6.34,0.07 Z M 6.33,1.01 a 5.4,5.4 0 0 1 5.4,5.4 5.4,5.4 0 0 1 -5.4,5.41 A 5.4,5.4 0 0 1 0.92,6.42 5.4,5.4 0 0 1 6.32,1 Z m 2.86,1.7 H 9.04 V 3.49 H 9.19 Z M 8.4,2.95 8.3,3.05 8.85,3.61 8.95,3.51 Z M 9.86,3.1 9.31,3.65 9.41,3.75 9.97,3.2 9.87,3.1 Z M 9.53,3.86 v 0.15 h 0.78 V 3.86 Z M 8.98,3.89 8.12,4.74 7.7,4.32 a 0.2,0.2 0 0 0 -0.28,0 L 6.93,4.81 A 3.19,3.19 0 0 0 2.3,7.56 v 0.1 A 3.19,3.19 0 1 0 8.34,6.22 L 8.83,5.73 a 0.2,0.2 0 0 0 0,-0.28 L 8.35,4.97 9.21,4.11 Z m 0.6,0.25 -0.1,0.1 0.55,0.55 0.1,-0.1 z M 4.84,5.04 A 0.65,0.47 0 0 1 5.49,5.51 0.65,0.47 0 0 1 4.84,5.97 0.65,0.47 0 0 1 4.19,5.51 0.65,0.47 0 0 1 4.84,5.04 Z M 3.72,6.2 a 0.61,1.16 12.98 0 1 0.1,0 0.61,1.16 12.98 0 1 0.34,1.28 0.61,1.16 12.98 0 1 -0.86,1 0.61,1.16 12.98 0 1 -0.33,-1.28 0.61,1.16 12.98 0 1 0.75,-1 z"
     id="path2"
     inkscape:connector-curvature="0"
     style="fill:#e6e6e6" />
</svg>
